X: 1
T: Tom Busby's
R: jig
M: 6/8
L: 1/8
K: Edor
Bee BBA|Bee BAF|Bee Bee|BAF AFD|
Bee BBA|Bee def|gfe dBG|ABG AFD:|
~A3 ded|BAB dBG|~A3 ded|dAF AFD|
~A3 ded|BAB def|gfe dBG|ABG AFD:|


Tune 2860	Setting 26061

